X:3261
T:Come West along the Road
M:C
L:1/8
K:G Major
d2BG dGBG|G2Bd efge|d2BG dGBG|ABcd edce:|!
g2bg egdg|egdg edBd|g2bg egdB|ABcd edBd|!
g2bg egdg|egdg edBd|gabg efge|dega bage|]!


